X:1
T:Happy Tidings
T:Happy Tidings
T:John Robson Sweney
T:Frances Jane (Fanny) Crosby, 1882
T:Public Domain Courtesy of the Cyber Hymnal™
T:Public Domain Courtesy of the Cyber Hymnal™
C:John Robson Sweney
Z:Public Domain
Z:Courtesy of the Cyber Hymnal™
%%score ( 1 2 ) ( 3 4 )
L:1/8
Q:1/4=92
M:4/4
K:Bb
V:1 treble 
V:2 treble 
V:3 bass 
V:4 bass 
V:1
 [DF]>[DF] [FB]>[Fc] [Fd]2 [DB]2 | [EG]2 [GB]>[EG] [DF]4 | [CF]>[CF] [EG]>[FA] [FB]2 [FB]2 | %3
w: 1.~Tid- ings, hap- py tid- ings,|Hark! hark! the sound!|Hear the joy- ful e- cho|
w: 2.~Tid- ings, hap- py tid- ings,|Hark! hark! they say,|Do not slight the warn- ing,|
w: 3.~Tid- ings, hap- py tid- ings,|Hark! hark! a- gain!|Rush- ing o’er the moun- tain,|
 [=EB]>[EA] [EB]>[Ed] [Fc]4 | [Fd]>[Fd] [Fd]>[Ge] [Fd]2 [DB]2 | [B,D]>[CE] [DF]>[EG] [DF]4 | %6
w: Through the world re- sound;|Christ the Lord pro- claims them,|Hear and heed the call,|
w: Come, O come to- day.|Christ, our lov- ing Sav- ior,|Still re- peats the call—|
w: Sweep- ing o’er the plain;|On- ward goes the mes- sage,|Tis the Sav- ior’s call,|
 [EG]>[EA] [FB]>[Fc] [Fd]>[Fe] [Fd]>[Gc] | [FB]2 [EA]>[EA] [DB]4 || %8
w: Come, ye starv- ing ones that per- ish,|Room, room for all.|
w: Come, ye wea- ry, hea- vy la- den,|Room, room for all.|
w: Come, for ev- ery- thing is rea- dy,|Room, room for all.|
"^Refrain" [Ac]>[GB] [FA]>[GB] [Fc]2 [EF]2 | [DF]>[DF] [FB]>[Fc] [Fd]4 | %10
w: ||
w: Who- so- ev- er ask- eth,|Je- sus will re- ceive;|
w: ||
 [Fc]>[Fc] [Fc]>[Fd] [Fc]2 [FA]2 | [=EG]>[GB] [FA]>[EG] F4 | [Fd]>[Fd] [Fd]>[Ge] [Fd]2 [DB]2 | %13
w: |||
w: Who- so- ev- er thirst- eth,|Je- sus will re- lieve.|See the liv- ing wa- ters|
w: |||
 [B,D]>[CE] [DF]>[EG] [DF]4 | [EG]>[EA] [FB]>[Fc] [Fd]>[Fe] [Fd]>[Gc] | [FB]2 [EA]2 [DB]4 |] %16
w: |||
w: Flow- ing full and free;|O the bless- èd who- so- ev- er,|That means me.|
w: |||
V:2
 x8 | x8 | x8 | x8 | x8 | x8 | x8 | x8 || x8 | x8 | x8 | x4 F4 | x8 | x8 | x8 | x8 |] %16
V:3
 [B,,B,]>[B,,B,] [D,B,]>[F,A,] B,2 (F,B,) | [E,B,]2 [E,B,]>[E,B,] [B,,B,]4 | %2
 [F,A,]>[F,A,] [F,B,]>[F,C] [B,D]2 [B,,D]2 | [C,C]>[C,C] [C,C]>[D,D] [F,A,]4 | %4
 B,>B, B,>B, [B,,B,]2 [B,,F,]2 | [B,,F,]>[B,,F,] [B,,B,]>[B,,B,] [B,,B,]4 | %6
 [E,B,]>[E,B,] [D,B,]>[C,A,] [B,,B,]>[C,A,] [D,B,]>[E,E] | [F,D]2 [F,C]>[F,C] [B,,B,]4 || %8
 [F,C]>[F,C] [F,C]>[F,C] [F,A,]2 [F,C]2 | [B,,B,]>[B,,B,] [D,B,]>[F,A,] B,4 | %10
 [F,A,]>[F,A,] [F,A,]>[F,B,] [F,A,]2 [F,C]2 | [C,C]>[C,C] [C,C]>[C,B,] [F,A,]4 | %12
 B,>B, B,>B, [B,,B,]2 [B,,F,]2 | [B,,F,]>[B,,F,] [B,,B,]>[B,,B,] [B,,B,]4 | %14
 [E,B,]>[E,B,] [D,B,]>[C,A,] [B,,B,]>[C,A,] [D,B,]>[E,E] | [F,D]2 [F,C]2 [B,,B,]4 |] %16
V:4
 x4 B,2 B,,2 | x8 | x8 | x8 | B,>B, B,>B, x4 | x8 | x8 | x8 || x8 | x4 B,4 | x8 | x8 | %12
 B,>B, B,>B, x4 | x8 | x8 | x8 |] %16

